X:1
T:SALUT D'AMOUR
T:(For Bb Clarinet and Piano )
T:Composed by Eward Elgar, Arranged by Alien
%%score 1 { ( 2 5 6 ) | ( 3 4 7 8 9 ) }
L:1/8
Q:1/4=96
M:2/4
K:E
V:1 treble transpose=-2 nm="B♭ Clarinette" snm="B♭ Cl."
V:2 treble nm="Pianoforte."
V:5 treble 
V:6 treble 
V:3 bass 
V:4 bass 
V:7 bass 
V:8 bass 
V:9 bass 
V:1
[K:F#]"^Andantino." z4 | z4 |:!p!"^dolce" (a2 ca) |"_legatiss." (gf)!tenuto!e!<(!(f!<)! | %4
 b2) !tenuto!b2 |!>(! (b2 c2)!>)! | (a2 ^^ca) | (gf)e!<(!(f!<)! | g2) !tenuto!g2 | %9
[Q:1/4=80]"^80"!>(! (g3!>)! ^^g) |[Q:1/4=96]"^96" (a2 ^c"_cresc."a) | (gf)!tenuto!e(f | %12
[Q:1/4=88]"^88"!<(! d'2) !>!d'2!<)! |[Q:1/4=80]"^80" (d'2 !tenuto!c'!tenuto!b) | %14
[Q:1/4=92]"^92"!mp! (a2 !tenuto!g!tenuto!f) |[Q:1/4=86]"^86""_dolciss."{/f} (d2 e2) |1 %16
[Q:1/4=80]"^80"!<(! f4-!<)! |[Q:1/4=72]"^72" f2!>(! c2!>)! :|2[Q:1/4=80]"^80""^dim."!>(! f4- | %19
[Q:1/4=72]"^72" f4!>)! ||[Q:1/4=92]"^92"!pp! (=a2 g!tenuto!f) |[Q:1/4=96]"^96" (=d2 =e!tenuto!f) | %22
 (g2 f!tenuto!=e) | (c2 =d"^poco cresc."=e) | (f2 g=a) | (b2 c'=d') | %26
[Q:1/4=84]"^84"!<(! (=e'2!<)!"^ten."!>(! g'f')!>)! |[Q:1/4=72]"^72"!>(! (=e'3!>)! =d') | %28
[Q:1/4=92]"^92"!p!"_cresc. molto" (c'2 b!tenuto!=a) |[Q:1/4=96]"^96" (f2 g=a) | (c'b =ag) | %31
[Q:1/4=86]"^86""^dim." (^e2[Q:1/4=80]"^80" !tenuto!f!tenuto!g) | %32
[Q:1/4=70]"^70"!p! (=a2 !tenuto!bc') | %33
[Q:1/4=60]"^60""_poco rit."!>(! (=d'2!>)![Q:1/4=36]"^36"!pp! !fermata!=a'>g') | %34
[Q:1/4=96]"^Tempo primo."!pp! (f'4 | c'4) | d'4 | c'4 | (f'4 |!<(! c'4) |[Q:1/4=84]"^84" d'4-!<)! | %41
[Q:1/4=72]"^72"!f!"^rit."!>(! (d'2 c'b)!>)! |[Q:1/4=96]"^Tempo primo."!p! (a2 ca) | %43
 (gf)!tenuto!e!<(!(f!<)! | b2) !tenuto!b2 |!>(! (b2!>)! c2) | (a2 ^^ca) | (gf)!tenuto!e!<(!(f!<)! | %48
 g2) !tenuto!g2 |[Q:1/4=80]"^80"!>(! (g3 ^^g)!>)! |[Q:1/4=96]"^96" (a2 ca) | %51
 (gf)!tenuto!e!<(!(f!<)! |[Q:1/4=88]"^88" d'2) !tenuto!d'2 |[Q:1/4=76]"^76""^dim." (d'2 e'f') | %54
[Q:1/4=96]"^96"!p!"^dolciss." (b' g'2 f') | %55
 (!tenuto!=e'!tenuto!=d')[Q:1/4=100]"^100"!<(! (g>^d')!<)! | (d' c'2"^cresc." a) | %57
 (!tenuto!g!tenuto!f)[Q:1/4=104]"^104"!<(! (c>=d!<)! |!ff! b) (g2 f) | %59
 (!tenuto!=e!tenuto!=d)[Q:1/4=92]"^92"!<(! (G>!<)!^d) |"^ten." (d2 cA) | %61
[Q:1/4=84]"^84"!>(! (GF)!>)![Q:1/4=96]"^96""_accel. e cresc."!p! (C>^^C) | %62
[Q:1/4=100]"^100" (DA,[Q:1/4=104]"^104"B,^C) |[Q:1/4=108]"^108" (DBAG) |!<(! (F^^CD!<)!E) | %65
[Q:1/4=96]"^96""_rit."!mf! (Ff)[Q:1/4=88]"^88"(ed) |!<(! !tenuto!c!tenuto!E[Q:1/4=84]"^84"(GF) | %67
[Q:1/4=76]"^76" (E>c)!<)![Q:1/4=32]"^32"!ff! (!fermata!c>!p!A) | %68
[Q:1/4=80]"^80""^rit. molto" (A2 G2 |[Q:1/4=72]"^72""^dim." D2 E2) | %70
[Q:1/4=96]"^96"!pp!"^Tempo più lento."!<(! (F4-!<)! | F2 Ac) |[Q:1/4=88]"^88"!<(! (^^c2 d2 | %73
 ^^d2 e2)!<)! |[Q:1/4=96]"^96"!<(! (f4-!<)! | f2[Q:1/4=90]"^90" ac') | %76
[Q:1/4=84]"^84"!>(! (^^c'2[Q:1/4=78]"^78""^poco rit." d'2 | %77
[Q:1/4=72]"^72" ^^d'2!>)![Q:1/4=60]"^60" e'2) |[Q:1/4=96]"^Tempo primo.""^sempre dim." f'4- | %79
 f'4- | f'4- | f'4 |[Q:1/4=86]"^86" f4- |[Q:1/4=76]"^76"!>(! f4- |[Q:1/4=40]"^40" !fermata!f4!>)! | %85
 z2 !fermata!z2 |] %86
V:2
!mf! z!>(! (!tenuto![B,EG]2 .[B,EG]) | z (!tenuto![B,EG]2!>)! .[B,EG]) |: %2
!pp! z (!tenuto![B,EG]2 .[B,EG]) | z (!tenuto![B,EB]2 .[B,EB]) |"^segue" z [A,EA]2 .[A,EA] | %5
 z [B,DA]2 .[B,DA] | z [G,EG]2 .[G,FG] |!<(! z [CEG]2 .[B,EG]!<)! | z [B,EF]2 .[^A,EF] | %9
!>(! z"^ten." ([B,DB]2 .[B,D=A])!>)! | z [B,EG]2"_cresc." .[B,EG] | z [B,EB]2 .[B,EB] | %12
!<(! z [CEc]2 .[C^EBc]!<)! | z!>(! ([Aa][Gg]!>)![Ff]) |!p!"^dol." ([=EG=e]2 [Fc]A) | %15
!>(! ([Ac]2!>)! [GB][FA]) |1!pp! ([EG]2"_rit." [CEA]2 | [C=G^A]2 [B,FB]2) :|2 %18
!pp! [EG]2"_rit." ([B,EG]2 | [=CFA]2 [^C=G^A]2 ||!ppp! [=D=GB]) ([DG=d]2 .[DG] | %21
 [E=G=c] [EGc]2 .[EGc] | [=DF=c] [DFc]2 .[DF] | [=DFB] [DFB]2 .[DFB] | [=CEB] [CEA]2 .[CEA] | %25
 [=CEA]"_cresc." [C=DA]2 .[DA] |!<(! A =G2 .G!<)! | =G F2 .E |!<(! [B,=D]) [B,DB]2 .[B,^DB] | %29
 [B,EB] [B,EB]2 .[B,EB]!<)! |!f! [EA=ce] [EAce]2 .[EAce] |!>(! [^DAB^d] [DABd]2 .[DABd]!>)! | %32
"_dim." [E=GBe] [EBe]2 .[EBe] |!pp!"_colla parte" [E=G=ce] [EGce]2 .[DABd] | (e2 ^dc | B2 ^AB | %36
 c2 =AG | F2) (^EF | A2!<(! ^EF!<)! | A2!>(! ^EF!>)! | A2)!<(! (^EF!<)! |!>(! =e2!>(! dc!>)!!>)! | %42
!p! B4) | z [B,E]2 .[B,E] |"_dolce" ([Aa]2 =c[Aa]) | ([Gg][Ff])!tenuto![^E^e]!tenuto![Ff] | %46
 [Gg]!p! !tenuto![EG]2 .[FG] | z [EG]2 .[EG] |!<(!{/F} (f2 F!<)!e) | %49
 (d!>(!c)!tenuto!B!tenuto!A!>)! | G3 z | z [B,EB]2 .[^B,E^B] | (c2!<(! Cc!<)! | %53
!>(! (B!>)!!>(! A3))!>)! | z [=CEA][CEA][CEA] | [A,EA][A,EA]"_cresc." [B,DF][B,DF] | %56
 z [B,E][B,E][B,E] | [B,E][B,E]!<(! z [B,E]!<)! | [A,=CEA]"_string."[A,CEA][A,CEA][A,CEA] | %59
 [A,EA][A,EA] [B,DF][B,DF] | z!>(! [B,E][B,EB][B,EG] | (F!>)!E) z"^accel."[I:staff +1] .[E,E] | %62
[I:staff -1] z[I:staff +1] .[E,A,C][I:staff -1] z[I:staff +1] .[^E,B,C] | %63
[I:staff -1] z!<(![I:staff +1] .[F,A,C][I:staff -1].F.[CFA]!<)! | z .[G,=EG] z .[G,CG] | %65
!f!"_rit." [=G,C=G]4 | !tenuto![B,F]2 !tenuto![B,E]2 | D2!>(! !tenuto!!fermata!=D2!>)! |!pp! C4- | %69
!>(! C2!>)! ^D2 |!pp!{/E} (g2 Bg | fed)!<(!(e!<)! | a2) !tenuto!a2 |!>(! (a2!>)! gf) | %74
!ppp!{/e} (G2 B,G | FE!<(!D)(E | A2)!<)!"^poco rit." !tenuto!A2 | (A2!>(! GF | %78
 E)!>)! ([B,E]2 [B,E] | [EG] [EG]2!>(! [GB]!>)! | [Be]2) z2 |!pp! !arpeggio!.[GBeg]2 z2 | %82
"^rall.     -       -      -"!>(! (!tenuto!E4 | !tenuto!E4) | !fermata!E4- | E2!>)! !fermata!z2 |] %86
V:3
!ped! z (!tenuto![B,,E,]2 .[B,,E,]) | z (!tenuto![B,,E,]2 .[B,,E,])!ped-up! |: %2
!ped! z [B,,E,]2 .[B,,E,]!ped-up! |!ped! z E,2 .E,!ped-up! |!ped! z F,2 .F,!ped-up! | %5
!ped! z F,2 .F,!ped-up! |!ped! ([E,,E,]2!ped-up!!ped! [D,,D,]2)!ped-up! | %7
!ped! [C,,C,-]4!ped-up!!ped!!ped-up! |!ped! C,4!ped-up!!ped!!ped-up! | %9
!ped! B,,3!ped!!ped-up! z!ped-up! |!ped! [E,,E,]4!ped-up! |!ped! [G,,G,]4!ped-up! | %12
!ped! ([A,,A,]2!ped-up!!ped! [G,,G,]2)!ped-up! |!ped! z [F,C]2 .[F,C]!ped-up! | %14
!ped! z!<(! !tenuto![G,B,]!tenuto![A,C]!<)!!tenuto![CE] | %15
 z!ped-up!"^dim."!ped! !>!B,2 B,-!ped-up! |1!<(!!ped! B,2!ped-up!!ped! x2!<)!!ped-up! | %17
!>(!!ped! x4!ped-up!!ped!!>)!!ped-up! :|2!ped! B,2 x2!ped-up! | %19
!ped!!>(! x4!ped-up!!ped!!ped-up!!>)! ||!ped! z B,2 .B,!ped-up! |!ped! A, A,2 .A,!ped-up! | %22
!ped! A, A,2 .A,!ped-up! |!ped! =G, G,2 .G,!ped-up! |!ped! =G, G,2 .G,!ped-up! | %25
!ped! =G, F,2 .=C!ped-up! |!ped! =D,4!ped-up!!ped!!ped-up! |!ped! =D,4!ped-up!!ped!!ped-up! | %28
!ped! [=D,=G,] [D,G,]2 .[^D,G,]!ped-up! |!ped! [E,=G,] [E,G,]2 .[E,G,]!ped-up! | %30
!ped! z [A,=C]2 .[A,C]!ped-up! |!ped! z [A,B,]2 .[A,B,]!ped-up! |!ped! z [=G,B,]2 .[G,B,]!ped-up! | %33
!ped! z [=G,=C]2!ped-up!!ped! .[A,B,]!ped-up! |"^dolcissimo"!ped! (^G,4!ped-up! | %35
!ped! A,4!ped-up! |!ped! G,4!ped-up! |!ped! A,4)!ped-up! |!ped! z [=C,F,]2 .[C,F,]!ped-up! | %39
!ped! z[I:staff -1] [A,B,]2 .[A,B,]!ped-up! |!ped![I:staff +1] z [^C,F,]2 .[C,F,]!ped-up! | %41
"^rit."!ped! z [A,B,]2 .[A,B,]!ped-up! |!ped! z G,2 .G,!ped-up! |!ped! z E,2 .E,!ped-up! | %44
!ped! z [F,A,E]2 .[F,A,E]!ped-up! |!ped! z [A,B,]2 .[A,B,]!ped-up! | %46
!ped! z G,2!ped-up!!ped! .G,!ped-up! |!ped! z G,2!ped-up!!ped! .B,!ped-up! | %48
!ped! z [^A,E]2 .[A,C]!ped-up! |!ped! z [=A,B,]2 .[A,B,]!ped-up! |!ped! z E,2 .E,!ped-up! | %51
!ped! z E,2!ped-up!!ped! .E,!ped-up! |"^cresc."!ped! ([A,,A,]2!ped-up!!ped! [G,,G,]2!ped-up! | %53
!ped! [F,,F,]2) z2!ped-up! |!p!!ped! [F,,F,]4- | [F,,F,]2!ped-up!!ped! ([B,,B,][A,,A,])!ped-up! | %56
!ped! [G,,G,]4- | [G,,G,]2 [G,,,G,,]2!ped-up! |!ped! [F,,,F,,]4- | %59
 [F,,,F,,]2!ped-up!!<(!!ped! [B,,,B,,][A,,,A,,]!<)!!ped-up! |!ped! [G,,,G,,]4!ped-up! | %61
!ped! [C,,C,]2!ped-up!!p! .[G,,,G,,] z | .[A,,,A,,] z .[G,,,G,,] z |!ped! [F,,,F,,]4!ped-up! | %64
 .[C,,C,] z .[B,,,B,,] z |!ped! [^A,,,^A,,]4!ped-up! |!ped! F,2!ped-up!!ped! E,2!ped-up! | %67
!ped! [D,A,]2!ped-up!!ped! =D,2!ped-up! |"^colla  parte"!ped! [C,A,]4!ped-up! |!ped! A,4!ped-up! | %70
!ped! z [E,B,]2 .[E,B,]!ped-up! |!ped! z [B,E]2 .[B,E]!ped-up! |!ped! z [A,E]2 .[A,E]!ped-up! | %73
!ped! z [A,B,F]2 .[A,B,]!ped-up! |!ped! z [B,,E,]2 .[B,,E,]!ped-up! | %75
!ped! z [E,B,]2 .[E,B,]!ped-up! |!ped! z [F,A,]2 .[F,A,]!ped-up! | %77
!ped! z [F,A,B,]2 .[A,B,]!ped-up! |!ped! G, (G,2 G, |!<(! B, B,2[I:staff -1] E!<)! | %80
 G2)[I:staff +1] z2 | .[E,B,E]2 z2 |"^dim." [E,G,]4 | [E,G,]4 | [E,G,]4- | %85
 [E,G,]2 !fermata!z2!ped-up! |] %86
V:4
 E,,4 | E,,4 |: E,,4 | G,,4 | F,,4 | B,,4 | x4 | x4 | F,,4 | x4 | x4 | x4 | x4 | F,,4 | %14
 [B,,,B,,]4- | [B,,,B,,] z B,, z |1 E,, E,2 E,- | E,.E,.D,.B,, :|2 E,!<(! E,2 E,-!<)! | %19
 E, E,2 .E, || =D,4 | =D,4 | =D,4 | =D,4 | =D,4 | =D,4 | (=D,2 =D,,2) | (=D,2 =D,,2) | =G,,4 | %29
 =G,,4 | [F,,F,]4 | B,,4 | B,,4 | B,,4 | B,,4- | B,,4 | B,,4- | B,,4 | F,,4 | x4 | F,,4 | B,,,4 | %42
 E,,4 | G,,4 | [F,,F,]4 | B,,4 | (E,,2 D,,2 | C,,4) | F,,4 | [B,,,B,,]4 | E,,4 | G,,4 | x4 | x4 | %54
 x4 | x4 | x4 | x4 | x4 | x4 | x4 | x4 | x4 | x4 | x4 | x4 | [=A,,,=A,,]2 [^G,,,^G,,]2 | %67
 [F,,,F,,]2 !fermata![^E,,,^E,,]2 | [F,,,F,,]4 | [B,,,B,,]4 | E,,4 | G,,4 | F,4 | B,,4 | E,,4 | %75
 G,,4 | F,,4 | B,,4 | E,,4 | x4 | x4 | x4 | (E,,2 !>!B,,2 | E,,2 !>!B,,2 | !fermata!E,,,4-) | %85
 E,,,2 x2 |] %86
V:5
 x4 | x4 |: x4 | x4 | x4 | x4 | x4 | x4 | x4 | x4 | x4 | x4 | x4 | x c2 .c | x4 | x4 |1 x4 | x4 :|2 %18
 x4 | x4 || x4 | x4 | x4 | x4 | x4 | x4 | x4 | x4 | x4 | x4 | x4 | x4 | x4 | x4 | x4 | x4 | x4 | %37
 x4 | x4 | z[I:staff +1] F,2 .F, | x4 | x4 | x4 | x4 | x4 | x4 | x4 | x4 |[I:staff -1] x/4x7/4 x2 | %49
 x4 | x4 | x4 | x4 | x4 | x4 | x4 | x4 | x4 | x4 | x4 | x4 | x4 | x4 | x4 | x4 | x4 | x4 | x4 | %68
 x4 | G2 F2 | x/4x7/4 x2 | x4 | x4 | x4 | x/4x7/4 x2 | x4 | x4 | x4 | x4 | x4 | x4 | x4 | x4 | x4 | %84
 x4 | x4 |] %86
V:6
 x4 | x4 |: x4 | x4 | x4 | x4 | x4 | x4 | x4 | x4 | x4 | x4 | x4 | x4 | x4 | x4 |1 x4 | x4 :|2 x4 | %19
 x4 || x4 | x4 | x4 | x4 | x4 | x4 | =D2 ^C2 | =C C2 .A, | x4 | x4 | x4 | x4 | x4 | x4 | %34
 z [E^G]2 .[EG] | z [DF]2 .[DF] | z [CE]2 [CE]- | [CE] [B,D]2 .[B,D] | z [A,=E]2 .[A,=E] | x4 | %40
 z [A,^C]2 .[A,C] | z F2 .D | z [B,E]2 .[B,E] | x4 | x4 | x4 | x4 | x4 | x4 | z D2 .D | %50
 z [B,E]2 .[B,E] | x4 | z E z ^E | z [CF]2 .[CF] | x4 | x4 | x4 | x4 | x4 | x4 | x4 | [G,C]2 x2 | %62
 x4 | x4 | x4 | x4 | x4 | x4 | x4 | x4 | x4 | x4 | x4 | x4 | x4 | x4 | z E2 .E | x4 | x4 | x4 | %80
 x4 | x4 | x4 | x4 | x4 | x4 |] %86
V:7
 x4 | x4 |: x4 | x4 | x4 | x4 | x4 | x4 | x4 | x4 | x4 | x4 | x4 | x4 | x4 | x4 |1 x4 | x4 :|2 x4 | %19
 x4 || x4 | x4 | x4 | x4 | x4 | x4 | B,2 _B,2 | A, A,2 .F, | x4 | x4 | x4 | x4 | x4 | x4 | x4 | %35
 x4 | x4 | x4 | x4 | x4 | x4 | x4 | x4 | x4 | x4 | x4 | x4 | x4 | x4 | x4 | x4 | x4 | x4 | x4 | %54
 x4 | x4 | x4 | x4 | x4 | x4 | x4 | x4 | x4 | x4 | x4 | x4 | x4 | x2 (G,>B,) | x4 | x4 | x4 | x4 | %72
 x4 | x4 | x4 | x4 | x4 | x4 | x4 | x4 | x4 | x4 | x2 B,,2- | B,,2 B,,2- | B,,4- | B,,2 x2 |] %86
V:8
 x4 | x4 |: x4 | x4 | x4 | x4 | x4 | x4 | x4 | x4 | x4 | x4 | x4 | x4 | x4 | x4 |1 x4 | x4 :|2 x4 | %19
 x4 || x4 | x4 | x4 | x4 | x4 | x4 | x4 | x4 | x4 | x4 | x4 | x4 | x4 | x4 | x4 | x4 | x4 | x4 | %38
 x4 | B,,4 | x4 | x4 | x4 | x4 | x4 | x4 | x4 | x4 | x4 | x4 | x4 | x4 | x4 | x4 | x4 | x4 | x4 | %57
 x4 | x4 | x4 | x4 | x4 | x4 | x4 | x4 | x4 | x4 | x4 | x4 | x4 | x4 | x4 | x4 | x4 | x4 | x4 | %76
 x4 | x4 | x4 | x4 | x4 | x4 | x4 | x4 | x4 | x4 |] %86
V:9
 x4 | x4 |: x4 | x4 | x4 | x4 | x4 | x4 | x4 | x4 | x4 | x4 | x4 | x4 | x4 | x4 |1 x4 | x4 :|2 x4 | %19
 x4 || x4 | x4 | x4 | x4 | x4 | x4 | x4 | x4 | x4 | x4 | x4 | x4 | x4 | x4 | x4 | x4 | x4 | x4 | %38
 x4 | x4 | x4 | x4 | x4 | x4 | x4 | x4 | x4 | x4 | x4 | x4 | x4 | x4 | x4 | x4 | x4 | x4 | x4 | %57
 x4 | x4 | x4 | x4 | x4 | x4 | x2 [A,C]2 | x4 | x4 | x4 | x4 | x4 | x4 | x4 | x4 | x4 | x4 | x4 | %75
 x4 | x4 | x4 | x4 | x4 | x4 | x4 | x4 | x4 | x4 | x4 |] %86

